X:2
T:Duncan Lamont
C:Trad
R:Strathspey
M:4/4
L:1/8
Q:1/4=118
K:D
[|: [2 a/ | {fg}f>B ] f>B {gcd}c<{e}A {g}B>{d}c {gfg}f>e | {g}c<{GdG}e {gcd}c>B {g}A>{d}c {gef}e>c | {gfg}f>B {gcd}c<{e}A {g}B>{d}c {gfg}f>e | {g}f/e/c {gef}e>A {gcd}c<{e}B {gBG}B3/2 :|]
e/ | {g}f<a {g}a>g {a}f<a {fg}f>e | {g}c<{GdG}e {gef}e>c {gfg}f>A {gef}e>c | {g}f<a {g}a>g {a}f<a {fg}f>e | {g}f/e/c {gef}e>A {gcd}c<{e}B {gBG}B>e | 
{g}f<a {g}a>g {a}f<a {fg}f>e | {g}c<{GdG}e {gef}e>c {gfg}f>A {gef}e>c | {GdGcG}B2 {gcd}c<{e}A {g}B>{d}c {gfg}f>e | {g}f/e/c {gef}e>A {gcd}c<{e}B {gBG}B3/2 || 
[|: f/ | {g}B2 {GdGe}B>{d}c {g}B>{d}c {gef}f>e | {gcd}c<{e}A {gAGAG}A2 {g}A>{d}c {gef}e>c | {g}B2 {GdGe}B>{d}c {g}B>{d}c {gef}f>e | {g}f/e/c {gef}e>A {gcd}c<{e}B {gBG}B3/2 :|]
e/ | {ag}a2 {GdG}a>e {g}f/g/a {fg}f>e | {g}f>A {gef}e>c {g}A>{d}c {gef}e>c | {ag}a2 {GdG}a>e {g}f/g/a {fg}f>e | {g}f/e/c {gef}e>A {gcd}c<{e}B {gBG}B>e |
{ag}a2 {GdG}a>e {g}f/g/a {fg}f>e | {g}f/e/c {gcd}c>B {g}A>{d}c {gef}e>c | {GdGcG}B2 {gcd}c<{e}A (3{g}f<ag {fg}f>e | {g}f/e/c {gef}e>A {gcd}c<{e}B {gBG}B2 |]
